app/client/src/assets/icons/blueprintjs/20px/array-timestamp.svg

<?xml version="1.0" encoding="UTF-8"?>
<svg width="20px" height="20px" viewBox="0 0 20 20" version="1.1" xmlns="http://www.w3.org/2000/svg" xmlns:xlink="http://www.w3.org/1999/xlink">
    <title>array-timestamp</title>
    <g stroke-width="1" fill-rule="evenodd">
        <path d="M19,0 C19.5128358,0 19.9355072,0.38604019 19.9932723,0.883378875 L20,1 L20,19 C20,19.5128358 19.6139598,19.9355072 19.1166211,19.9932723 L19,20 L15,20 C14.4477153,20 14,19.5522847 14,19 C14,18.4871642 14.3860402,18.0644928 14.8833789,18.0067277 L15,18 L18,18 L18,2 L15,2 C14.4871642,2 14.0644928,1.61395981 14.0067277,1.11662113 L14,1 C14,0.487164161 14.3860402,0.0644928393 14.8833789,0.00672773132 L15,0 L19,0 Z M5,0 C5.55228475,0 6,0.44771525 6,1 C6,1.51283584 5.61395981,1.93550716 5.11662113,1.99327227 L5,2 L2,2 L2,18 L5,18 C5.51283584,18 5.93550716,18.3860402 5.99327227,18.8833789 L6,19 C6,19.5128358 5.61395981,19.9355072 5.11662113,19.9932723 L5,20 L1,20 C0.487164161,20 0.0644928393,19.6139598 0.00672773133,19.1166211 L0,19 L0,1 C0,0.487164161 0.38604019,0.0644928393 0.883378875,0.00672773133 L1,0 L5,0 Z M10,4 C13.3137085,4 16,6.6862915 16,10 C16,13.3137085 13.3137085,16 10,16 C6.6862915,16 4,13.3137085 4,10 C4,6.6862915 6.6862915,4 10,4 Z M10,5 C7.23857625,5 5,7.23857625 5,10 C5,12.7614237 7.23857625,15 10,15 C12.7614237,15 15,12.7614237 15,10 C15,7.23857625 12.7614237,5 10,5 Z M12.8535534,7.14644661 C13.0271197,7.32001296 13.0464049,7.58943736 12.9114088,7.7843055 L12.8535534,7.85355339 L10.3535534,10.3535534 C10.179987,10.5271197 9.91056264,10.5464049 9.7156945,10.4114088 L9.64644661,10.3535534 L8.14644661,8.85355339 C7.95118446,8.65829124 7.95118446,8.34170876 8.14644661,8.14644661 C8.32001296,7.97288026 8.58943736,7.95359511 8.7843055,8.08859116 L8.85355339,8.14644661 L10,9.293 L12.1464466,7.14644661 C12.3417088,6.95118446 12.6582912,6.95118446 12.8535534,7.14644661 Z"></path>
    </g>
</svg>

<svg xmlns="http://www.w3.org/2000/svg" width="20" height="20"><path fill-rule="evenodd" d="M19 0a1 1 0 0 1 .993.883L20 1v18a1 1 0 0 1-.883.993L19 20h-4a1 1 0 0 1-.117-1.993L15 18h3V2h-3a1 1 0 0 1-.993-.883L14 1a1 1 0 0 1 .883-.993L15 0h4ZM5 0a1 1 0 0 1 .117 1.993L5 2H2v16h3a1 1 0 0 1 .993.883L6 19a1 1 0 0 1-.883.993L5 20H1a1 1 0 0 1-.993-.883L0 19V1A1 1 0 0 1 .883.007L1 0h4Zm5 4a6 6 0 1 1 0 12 6 6 0 0 1 0-12Zm0 1a5 5 0 1 0 0 10 5 5 0 0 0 0-10Zm2.854 2.146a.5.5 0 0 1 .057.638l-.057.07-2.5 2.5a.5.5 0 0 1-.638.057l-.07-.057-1.5-1.5a.5.5 0 0 1 .638-.765l.07.057L10 9.293l2.146-2.147a.5.5 0 0 1 .708 0Z"/></svg>
